X:29
T:Hunting the Hare
R:slip jig
Z:id:hn-slipjig-29
M:9/8
K:D
F2A ABA d2A|Bcd e2d cBA|F2A ABA d2A|1 Bcd edc d2A:|2 Bcd edc d2e||
|:fef def gfg|a2e efd cBA|~f3 def gfg|1 ~a3 efe d2e:|2 ~a3 efe d2A||
<end>
<start>
